icons/evolvere-blue-folders-flat-vivid-dark-fallback/apps/64/boinc-manager.svg

<?xml version="1.0" encoding="UTF-8" standalone="no"?>
<!-- Created with Inkscape (http://www.inkscape.org/) -->

<svg
   xmlns:dc="http://purl.org/dc/elements/1.1/"
   xmlns:cc="http://creativecommons.org/ns#"
   xmlns:rdf="http://www.w3.org/1999/02/22-rdf-syntax-ns#"
   xmlns:svg="http://www.w3.org/2000/svg"
   xmlns="http://www.w3.org/2000/svg"
   xmlns:sodipodi="http://sodipodi.sourceforge.net/DTD/sodipodi-0.dtd"
   xmlns:inkscape="http://www.inkscape.org/namespaces/inkscape"
   width="64"
   height="64"
   id="svg13094"
   version="1.1"
   inkscape:version="0.91+devel r"
   sodipodi:docname="boinc-manager.svg">
  <sodipodi:namedview
     id="base"
     pagecolor="#ffffff"
     bordercolor="#666666"
     borderopacity="1.0"
     inkscape:pageopacity="0"
     inkscape:pageshadow="2"
     inkscape:zoom="11.313709"
     inkscape:cx="35.548469"
     inkscape:cy="30.338584"
     inkscape:document-units="px"
     inkscape:current-layer="svg13094"
     showgrid="true"
     inkscape:snap-bbox="true"
     inkscape:bbox-paths="true"
     inkscape:bbox-nodes="true"
     inkscape:snap-bbox-edge-midpoints="true"
     inkscape:snap-bbox-midpoints="true"
     inkscape:object-paths="true"
     inkscape:snap-intersection-paths="true"
     inkscape:object-nodes="true"
     inkscape:snap-smooth-nodes="true"
     inkscape:snap-midpoints="true"
     inkscape:snap-object-midpoints="true"
     inkscape:snap-center="true"
     showguides="true"
     inkscape:guide-bbox="true"
     inkscape:window-width="1920"
     inkscape:window-height="1023"
     inkscape:window-x="-10"
     inkscape:window-y="35"
     inkscape:window-maximized="1"
     inkscape:snap-global="true"
     fit-margin-top="0"
     fit-margin-left="0"
     fit-margin-right="0"
     fit-margin-bottom="0"
     showborder="true"
     inkscape:showpageshadow="false"
     inkscape:snap-page="true">
    <inkscape:grid
       type="xygrid"
       id="grid3075"
       empspacing="5"
       visible="true"
       enabled="true"
       snapvisiblegridlinesonly="true"
       originx="1.6362304e-08px"
       originy="18px" />
  </sodipodi:namedview>
  <defs
     id="defs13096" />
  <metadata
     id="metadata13099">
    <rdf:RDF>
      <cc:Work
         rdf:about="">
        <dc:format>image/svg+xml</dc:format>
        <dc:type
           rdf:resource="http://purl.org/dc/dcmitype/StillImage" />
        <dc:title></dc:title>
      </cc:Work>
    </rdf:RDF>
  </metadata>
  <path
     inkscape:connector-curvature="0"
     style="color:#000000;display:inline;overflow:visible;visibility:visible;opacity:1;fill:#2d5588;fill-opacity:1;fill-rule:nonzero;stroke:none;stroke-width:1;stroke-linecap:butt;stroke-linejoin:miter;stroke-miterlimit:4;stroke-dasharray:none;stroke-dashoffset:0;stroke-opacity:1;marker:none;enable-background:accumulate"
     d="m 0,4 0,30 0,28 2,2 30,0 30,0 2,-2 L 64,34 64,4 32,4 0,4 Z"
     id="path4095" />
  <path
     inkscape:connector-curvature="0"
     style="color:#000000;display:inline;overflow:visible;visibility:visible;opacity:1;fill:#4d89d4;fill-opacity:1;fill-rule:nonzero;stroke:none;stroke-width:2.28571415;stroke-linecap:butt;stroke-linejoin:miter;stroke-miterlimit:4;stroke-dasharray:none;stroke-dashoffset:0;stroke-opacity:1;marker:none;enable-background:accumulate"
     d="M 2,0 0,1 0,4 32,4 64,4 64,1 62,0 32,0 2,0 Z"
     id="path4090" />
  <path
     inkscape:connector-curvature="0"
     style="opacity:1;fill:#5495e6;fill-opacity:1;fill-rule:nonzero;stroke-width:1;stroke-linecap:butt;stroke-linejoin:miter;stroke-miterlimit:4;stroke-dasharray:none;stroke-dashoffset:0;stroke-opacity:1"
     d="M 0,3 0,6 2,4 Z"
     id="path4298"
     sodipodi:nodetypes="cccc" />
  <path
     d="M 64,6 62,4 64,3 Z"
     id="path3028"
     style="opacity:1;fill:#3d6fad;fill-opacity:1;stroke:none;stroke-width:0.62299293;stroke-linecap:butt;stroke-linejoin:miter;stroke-miterlimit:4;stroke-dasharray:none;stroke-dashoffset:0;stroke-opacity:1;marker:none"
     inkscape:connector-curvature="0" />
  <g
     id="g3043"
     inkscape:export-filename="folder.png"
     inkscape:export-xdpi="90"
     inkscape:export-ydpi="90"
     transform="translate(-0.62500009,0.082283)" />
  <g
     id="scalable"
     transform="matrix(1.0385892,0,0,1.0385892,1214.7222,1878.8121)"
     inkscape:label="#g3701"
     style="fill:#ffffff" />
  <path
     sodipodi:type="arc"
     style="color:#000000;fill:#efbd44;fill-opacity:1;fill-rule:nonzero;stroke:none;stroke-width:1;marker:none;visibility:visible;display:inline;overflow:visible;enable-background:accumulate"
     id="path3933"
     sodipodi:cx="328"
     sodipodi:cy="256"
     sodipodi:rx="8"
     sodipodi:ry="8"
     d="m 336,256 a 8,8 0 1 1 -16,0 8,8 0 1 1 16,0 z"
     transform="matrix(1.0624973,0,0,1.0624973,-315.49907,-237.99929)" />
  <path
     inkscape:connector-curvature="0"
     style="color:#000000;fill:#3e9aff;fill-opacity:1;fill-rule:nonzero;stroke:none;stroke-width:1;marker:none;visibility:visible;display:inline;overflow:visible;enable-background:accumulate"
     d="m 11.838652,9.8282071 -3.0104093,3.0104089 10.7577853,10.757786 0,0.0442 3.010409,3.01041 c 2.309444,-3.260521 6.103962,-5.400958 10.40362,-5.400958 1.660584,0 3.237783,0.35214 4.692696,0.929685 l 3.187492,-3.187492 c -2.361435,-1.253435 -5.021405,-1.992182 -7.880188,-1.992182 -3.923817,0 -7.526604,1.353012 -10.40362,3.585928 L 11.838652,9.8282071 z m 42.32281,0 -10.757786,10.7577849 c -0.01629,-0.01275 -0.02791,-0.03173 -0.0442,-0.0442 l -3.01041,3.010409 c 3.273045,2.3079 5.401029,6.138543 5.401029,10.44789 0,1.675332 -0.342365,3.2715 -0.929686,4.736967 l 3.187492,3.187492 c 1.264769,-2.369865 1.992112,-5.051735 1.992112,-7.92453 0,-3.923817 -1.353012,-7.526603 -3.585928,-10.403619 L 57.171871,12.838616 54.161462,9.8282071 z M 17.992282,26.075562 c -1.264839,2.369794 -1.992182,5.051665 -1.992182,7.924459 0,3.923817 1.353012,7.526604 3.585928,10.40362 l -10.7577853,10.757785 3.0104093,3.010409 3.187492,-3.187492 -0.0442,-0.0442 10.580702,-10.580702 c -3.216122,-2.314714 -5.312557,-6.094485 -5.312557,-10.35942 0,-1.675331 0.342365,-3.2715 0.929685,-4.736967 l -3.187492,-3.187492 z m 25.411394,15.273399 c -2.309444,3.260592 -6.103962,5.401028 -10.403619,5.401028 -1.710493,0 -3.335066,-0.363006 -4.825509,-0.973956 l -3.187492,3.187492 c 2.390492,1.293569 5.105172,2.036453 8.013001,2.036453 3.923817,0 7.526603,-1.353012 10.403619,-3.585928 l 10.757786,10.757785 3.010409,-3.010409 -6.330713,-6.374984 -4.427072,-4.382801 c 0.0071,-0.0099 -0.0071,-0.03471 0,-0.0442 l -3.01041,-3.010409 z"
     id="path3935" />
</svg>

<svg xmlns="http://www.w3.org/2000/svg" viewBox="0 0 64 64"><g color="#000"><path d="m0 4v30 28l2 2h30 30l2-2v-28-30h-32-32" fill="#2d5588"/><path d="m2 0l-2 1v3h32 32v-3l-2-1h-30-30" fill="#4d89d4"/></g><path d="m0 3v3l2-2" fill="#5495e6"/><path d="m64 6l-2-2 2-1" fill="#3d6fad"/><g color="#000"><path d="m336 256a8 8 0 1 1 -16 0 8 8 0 1 1 16 0" transform="matrix(1.0625 0 0 1.0625-315.5-238)" fill="#efbd44"/><path d="m11.839 9.828l-3.01 3.01 10.758 10.758v.044l3.01 3.01c2.309-3.261 6.104-5.401 10.404-5.401 1.661 0 3.238.352 4.693.93l3.187-3.187c-2.361-1.253-5.02-1.992-7.88-1.992-3.924 0-7.527 1.353-10.404 3.586l-10.758-10.758m42.32 0l-10.758 10.758c-.016-.013-.028-.032-.044-.044l-3.01 3.01c3.273 2.308 5.401 6.139 5.401 10.448 0 1.675-.342 3.272-.93 4.737l3.187 3.187c1.265-2.37 1.992-5.05 1.992-7.925 0-3.924-1.353-7.527-3.586-10.404l10.758-10.758-3.01-3.01m-36.17 16.247c-1.265 2.37-1.992 5.05-1.992 7.924 0 3.924 1.353 7.527 3.586 10.404l-10.758 10.758 3.01 3.01 3.187-3.187-.044-.044 10.581-10.581c-3.216-2.315-5.313-6.094-5.313-10.359 0-1.675.342-3.271.93-4.737l-3.187-3.187m25.411 15.273c-2.309 3.261-6.104 5.401-10.404 5.401-1.71 0-3.335-.363-4.826-.974l-3.187 3.187c2.39 1.294 5.105 2.036 8.01 2.036 3.924 0 7.527-1.353 10.404-3.586l10.758 10.758 3.01-3.01-6.331-6.375-4.427-4.383c.007-.01-.007-.035 0-.044l-3.01-3.01" fill="#3e9aff"/></g></svg>
